src/icons/outline/media/audio-off.svg

<svg width="24" height="24" viewBox="0 0 24 24" fill="none" xmlns="http://www.w3.org/2000/svg">
<g clip-path="url(#clip0_4569_417)">
<path fill-rule="evenodd" clip-rule="evenodd" d="M2.48047 3.21973C2.77062 2.9218 3.25096 2.93159 3.54102 3.21973L8.67285 8.34864L9.52344 9.20313L13.5547 13.2383L14.6055 14.2813L16.5967 16.2695H16.5859L19.8477 19.5293C20.1477 19.8175 20.1377 20.2948 19.8477 20.583C19.6976 20.7319 19.5074 20.8008 19.3174 20.8008C19.1274 20.8008 18.9371 20.732 18.7871 20.583L14.6055 16.3984V20.2744C14.6055 20.5427 14.4652 20.781 14.2451 20.9102C14.1351 20.9698 14.0253 21 13.9053 21C13.7753 21 13.6452 20.9601 13.5352 20.8906L8.10254 17.3828H6.06152C3.82066 17.3827 2 15.444 2 13.0488C2.00016 10.6539 3.82076 8.71595 6.06152 8.71583H6.92188L2.48047 4.27344C2.18034 3.98522 2.19034 3.50795 2.48047 3.21973ZM6.06152 10.1572C4.60109 10.1574 3.40055 11.449 3.40039 13.0488C3.40039 14.6489 4.59099 15.9413 6.06152 15.9414H8.30273L8.40039 15.9482C8.49685 15.9627 8.59043 15.9987 8.67285 16.0508L13.2051 18.9658V15.0166L8.35254 10.1572H6.06152Z" fill="#3C3B44"/>
<path d="M18.8271 7.3545C19.1072 7.07629 19.5472 7.08604 19.8174 7.37403C22.6285 10.3952 22.7189 15.2352 20.1182 18.3857L19.0977 17.3623C21.1783 14.7684 21.0984 10.8426 18.8076 8.37794C18.5375 8.08975 18.5471 7.63279 18.8271 7.3545Z" fill="#3C3B44"/>
<path d="M16.6865 9.66016C16.9666 9.382 17.4066 9.39165 17.6768 9.67969C19.3175 11.4587 19.3774 14.2818 17.8867 16.1602L16.8867 15.1563C17.8671 13.8344 17.8065 11.906 16.666 10.6836C16.3961 10.3954 16.4065 9.93836 16.6865 9.66016Z" fill="#3C3B44"/>
<path d="M13.5449 5.20801C13.7649 5.06895 14.0349 5.05853 14.2549 5.18751C14.475 5.31671 14.6152 5.56582 14.6152 5.82422V12.8701L13.2148 11.4785V7.12598L13.2246 7.11622L10.5732 8.8252L9.5332 7.792L13.5449 5.20801Z" fill="#3C3B44"/>
</g>
<defs>
<clipPath id="clip0_4569_417">
<rect width="24" height="24" fill="white"/>
</clipPath>
</defs>
</svg>

<svg xmlns="http://www.w3.org/2000/svg" width="24" height="24" fill="none" viewBox="0 0 24 24"><g fill="currentColor" clip-path="url(#a)"><path fill-rule="evenodd" d="M2.48 3.22a.75.75 0 0 1 1.061 0l5.132 5.129.85.854 4.032 4.035 1.05 1.043 1.992 1.989h-.011l3.262 3.26c.3.287.29.765 0 1.053a.75.75 0 0 1-.53.218.74.74 0 0 1-.53-.218l-4.183-4.185v3.876c0 .269-.14.507-.36.636-.11.06-.22.09-.34.09a.7.7 0 0 1-.37-.11l-5.432-3.507H6.062C3.82 17.383 2 15.444 2 13.049s1.82-4.333 4.062-4.333h.86L2.48 4.273a.74.74 0 0 1 0-1.053m3.582 6.937c-1.46 0-2.661 1.292-2.662 2.892s1.191 2.892 2.662 2.892h2.24l.098.007q.147.023.273.103l4.532 2.915v-3.95l-4.852-4.859z" clip-rule="evenodd"/><path d="M18.827 7.355a.684.684 0 0 1 .99.019c2.811 3.021 2.902 7.861.301 11.012l-1.02-1.024c2.08-2.594 2-6.52-.29-8.984a.74.74 0 0 1 .02-1.024"/><path d="M16.687 9.66a.684.684 0 0 1 .99.02c1.64 1.779 1.7 4.602.21 6.48l-1-1.004c.98-1.322.92-3.25-.221-4.472a.74.74 0 0 1 .02-1.024m-3.141-4.452c.22-.14.49-.15.71-.02.22.129.36.378.36.636v7.046l-1.4-1.391V7.126l.01-.01-2.652 1.71-1.04-1.034z"/></g><defs><clipPath id="a"><path fill="currentColor" d="M0 0h24v24H0z"/></clipPath></defs></svg>
